build/category/DiamondSolid.svg

<svg xmlns="http://www.w3.org/2000/svg" fill="none" viewBox="0 0 24 24" focusable="false"><path d="M0 0H24V24H0z"/><path fill="#74767B" fill-rule="evenodd" d="M3.06159 8.49023C2.89296 8.68441 3.03122 8.98641 3.28841 8.98641L7.38321 8.98641C7.48287 8.98641 7.57602 8.93693 7.6318 8.85435L10.5951 4.46794C10.7297 4.2687 10.587 4 10.3465 4L7.5618 4C7.18687 4 6.8302 4.16187 6.58334 4.44407C5.62395 5.54079 3.87111 7.55811 3.06159 8.49023ZM20.9332 8.48976C21.1024 8.68382 20.9643 8.98641 20.7068 8.98641L16.6423 8.98641C16.5471 8.98641 16.4577 8.94132 16.4011 8.86486L13.1552 4.47845C13.0087 4.28045 13.15 4 13.3963 4L16.419 4C16.793 4 17.1489 4.16108 17.3957 4.44208C18.3592 5.53897 20.1199 7.55707 20.9332 8.48976ZM14.2362 8.98641C14.4835 8.98641 14.6246 8.70406 14.4762 8.50631L12.1396 5.39376C12.017 5.2304 11.7705 5.23469 11.6537 5.40222L9.48233 8.51477C9.3436 8.71365 9.48589 8.98641 9.72838 8.98641L14.2362 8.98641ZM13.2921 18.9498C13.2173 19.1575 13.4829 19.3171 13.6287 19.1514C15.1273 17.448 18.7169 13.3667 20.9835 10.7821C21.1535 10.5882 21.014 10.2864 20.7562 10.2864L16.6228 10.2864C16.4963 10.2864 16.3834 10.3658 16.3406 10.4848L13.2921 18.9498ZM14.8856 10.6881C14.956 10.4926 14.8112 10.2864 14.6034 10.2864L9.44512 10.2864C9.23647 10.2864 9.09154 10.4941 9.16357 10.69L11.7699 17.7761C11.8666 18.0389 12.2388 18.0377 12.3337 17.7742L14.8856 10.6881ZM3.01561 10.7817C2.84546 10.588 2.98501 10.2864 3.24287 10.2864L7.42068 10.2864C7.54643 10.2864 7.65883 10.3648 7.70224 10.4829L10.869 19.0926C10.9453 19.3002 10.6807 19.4625 10.5342 19.2969C8.98588 17.548 5.23678 13.311 3.01561 10.7817Z"/></svg>

<svg xmlns="http://www.w3.org/2000/svg" fill="none" viewBox="0 0 24 24" focusable="false"><path fill="#74767B" fill-rule="evenodd" d="M3.06 8.49c-.17.19-.03.49.22.49h4.1c.1 0 .19-.05.25-.13l2.96-4.39c.13-.2-.01-.46-.25-.46H7.56c-.38 0-.73.16-.98.44-.96 1.1-2.71 3.11-3.52 4.05m17.87-.01c.17.2.03.5-.23.5h-4.06c-.1 0-.19-.04-.24-.12l-3.25-4.39c-.15-.19-.01-.47.24-.47h3.02c.38 0 .73.16.98.44.96 1.09 2.73 3.11 3.54 4.04m-6.7.5c.25 0 .39-.28.24-.48l-2.34-3.11a.295.295 0 0 0-.48.01L9.48 8.51c-.14.2 0 .47.24.47zm-.94 9.96c-.08.21.19.37.33.21 1.5-1.71 5.09-5.79 7.36-8.37.17-.2.03-.5-.23-.5h-4.13c-.13 0-.24.08-.28.2zm1.59-8.26c.07-.19-.07-.4-.28-.4H9.44c-.21 0-.35.21-.28.41l2.61 7.08c.09.26.46.26.56 0zm-11.87.1c-.17-.2-.03-.5.23-.5h4.18c.12 0 .23.08.28.2l3.16 8.61c.08.21-.18.37-.33.2-1.55-1.75-5.3-5.98-7.52-8.51"/></svg>
